X: 1965
T: Warracknabeal Waltz
B: australian traditional tunes wiki
M:3/4
L:1/8
R: Waltz
Q: 1/4=100
K:D
V:1 
"D"A3B AF|D2F2"G"B2|"D"A3B AF|D2F2d2|"A7"c6|E2A2cB|"D"A3B AF|D4"G"B2|
"D"A3B AF|D2F2"G"B2|"D"A3B AF|D2F2d2|"A7"c6|"G"B4c2|"A7"A2c2e2|"D"d4"A7"e2||
"D"f6|"A7"e6|"D"d3c dB|F2A2d2|"A7"c6|E2A2cB|"D"A3B AF|D4"A7"A2|
"D"f6|"A7"e6|"D"d3c dB|F2A2d2|"A7"c6|"G"B6|"A7"A2c2e2|"D"d6||
% abcbook-tune_id 6342d5be27f1ba8e4f8a20b2


% abcbook-boost 0
% abcbook-tablature 
% abcbook-transpose 
% abcbook-lastupdated 1665324491035
% abcbook-soundfonts 
% abcbook-repeats 1
% NFF Book 2007

